assets/images/favicon.svg

<svg width="32" height="32" viewBox="0 0 32 32" fill="none" xmlns="http://www.w3.org/2000/svg">
<rect width="32" height="32" fill="white"/>
<rect width="16" height="32" fill="#252525"/>
<rect x="16" width="16" height="32" fill="white"/>
<path d="M9.40039 11.4062H6.58203L6.08984 13H3.89258L7.02148 4.46875H8.95508L12.1074 13H9.89844L9.40039 11.4062ZM7.07422 9.81836H8.9082L7.98828 6.85938L7.07422 9.81836ZM7.90039 23.9883H6.78711V27H4.73047V18.4688H8.08789C9.09961 18.4688 9.89062 18.6934 10.4609 19.1426C11.0312 19.5918 11.3164 20.2266 11.3164 21.0469C11.3164 21.6406 11.1953 22.1328 10.9531 22.5234C10.7148 22.9141 10.3398 23.2305 9.82812 23.4727L11.6094 26.9121V27H9.40625L7.90039 23.9883ZM6.78711 22.4004H8.08789C8.47852 22.4004 8.77148 22.2988 8.9668 22.0957C9.16602 21.8887 9.26562 21.6016 9.26562 21.2344C9.26562 20.8672 9.16602 20.5801 8.9668 20.373C8.76758 20.1621 8.47461 20.0566 8.08789 20.0566H6.78711V22.4004Z" fill="white"/>
</svg>

<svg width="32" height="32" fill="none" xmlns="http://www.w3.org/2000/svg"><path fill="#fff" d="M0 0h32v32H0z"/><path fill="#252525" d="M0 0h16v32H0z"/><path fill="#fff" d="M16 0h16v32H16zM9.4 11.406H6.582L6.09 13H3.893L7.02 4.469h1.934L12.107 13H9.898L9.4 11.406zM7.074 9.818h1.834l-.92-2.959-.914 2.96zm.826 14.17H6.787V27H4.73v-8.531h3.358c1.012 0 1.803.224 2.373.674.57.449.855 1.084.855 1.904 0 .594-.12 1.086-.363 1.476-.238.391-.613.707-1.125.95l1.781 3.44V27H9.406L7.9 23.988zM6.787 22.4h1.3c.392 0 .684-.101.88-.304.199-.207.299-.494.299-.862 0-.367-.1-.654-.3-.861-.198-.21-.491-.316-.878-.316h-1.3V22.4z"/></svg>
